icons/glyphs/glyph-bandage.svg

<?xml version="1.0" encoding="UTF-8" standalone="no"?><svg height="16" viewBox="0 0 4.2333332 4.2333332" width="16" xmlns="http://www.w3.org/2000/svg"><sodipodi:namedview/><metadata><rdf:RDF><cc:Work><dc:format>image/svg+xml</dc:format><dc:type/><dc:title/></cc:Work></rdf:RDF></metadata><path d="m11.623047 0c-1.117917.00000005-2.2353645.42872376-3.091797 1.2851562l6.183594 6.1816407c1.712864-1.7128642 1.714819-4.4687755.001953-6.1816407-.856433-.85643255-1.975833-1.28515625-3.09375-1.2851562zm-3.7089845 1.9023438-6.0117187 6.0117187 6.1835937 6.1816405 6.0097655-6.0097655zm.0527344 3.4785156a.3995872.3995872 0 0 1  .2949219.0976562.3995872.3995872 0 0 1  .0195312.0195313.3995872.3995872 0 0 1 0 .5664062.3995872.3995872 0 0 1 -.5644531-.0019531.3995872.3995872 0 0 1 -.0019531-.5644531.3995872.3995872 0 0 1  .2519531-.1171875zm-2.1855469 2.21875c.1025148-.0000007.2051143.0407343.2832031.1191406.1555076.156404.1543153.408816-.0019531.5644531-.1556394.1562665-.40806.15552-.5644531 0-.1498696-.1485879-.1585121-.3880668-.0195313-.546875.0061985-.0066897.0128415-.0113419.0195313-.0175781.0780905-.0784052.1806883-.11914.2832031-.1191406zm2.2207031 0c .1025149-.0000003.2051143.0387831.2832031.1171875.1555034.1564017.1543153.4088159-.0019531.5644531-.1556394.1562668-.4080525.157458-.5644531.0019531-.1498696-.1485895-.158512-.3880668-.0195312-.546875.0061984-.0066897.0128414-.013295.0195312-.0195312.0780903-.0784054.1806883-.1171873.2832031-.1171875zm2.2128909 0a .3995872.3995872 0 0 1  .041015.0019531.3995872.3995872 0 0 1  .072266.015625.3995872.3995872 0 0 1  .011719.0019531.3995872.3995872 0 0 1  .033203.0117188.3995872.3995872 0 0 1  .029297.0136718.3995872.3995872 0 0 1  .013672.0078126.3995872.3995872 0 0 1  .046875.0292968.3995872.3995872 0 0 1  .017578.015625.3995872.3995872 0 0 1  .023437.0214844.3995872.3995872 0 0 1  .115235.3144531.3995872.3995872 0 0 0 -.001953.0019531.3995872.3995872 0 0 1 -.013672.078125.3995872.3995872 0 0 0 -.001954 0 .3995872.3995872 0 0 1 -.011718.0371094.3995872.3995872 0 0 0 0 .0019532.3995872.3995872 0 0 1 -.017578.0351562.3995872.3995872 0 0 0 -.001954.0019531.3995872.3995872 0 0 1 -.017578.03125.3995872.3995872 0 0 0 0 .0019531.3995872.3995872 0 0 1 -.023437.03125.3995872.3995872 0 0 1 -.029297.0292969.3995872.3995872 0 0 1 -.046875.0410157.3995872.3995872 0 0 1 -.003906.0019531.3995872.3995872 0 0 0 0 .0019531.3995872.3995872 0 0 1 -.007813.0039062.3995872.3995872 0 0 1 -.0625.0351563.3995872.3995872 0 0 1 -.019531.0078125.3995872.3995872 0 0 1 -.015625.0058594.3995872.3995872 0 0 0 -.001953.0019531.3995872.3995872 0 0 1 -.078125.0136719.3995872.3995872 0 0 1 -.039063.0039062.3995872.3995872 0 0 1 -.039062 0 .3995872.3995872 0 0 0 -.001953-.0019531.3995872.3995872 0 0 1 -.03711-.0039063.3995872.3995872 0 0 0 0-.0019531.3995872.3995872 0 0 1 -.039062-.0078125.3995872.3995872 0 0 0 -.001953-.0019531.3995872.3995872 0 0 1 -.035157-.0097656.3995872.3995872 0 0 0 -.001953-.0019531.3995872.3995872 0 0 1 -.037109-.0175782.3995872.3995872 0 0 1 -.03125-.0175781.3995872.3995872 0 0 0 -.0019531-.0019531.3995872.3995872 0 0 1 -.03125-.0214844.3995872.3995872 0 0 1 -.0019531-.0039062.3995872.3995872 0 0 1 -.0273438-.0253907.3995872.3995872 0 0 0 -.0019531 0 .3995872.3995872 0 0 1 -.0253907-.0292969.3995872.3995872 0 0 1 -.0234374-.03125.3995872.3995872 0 0 1 -.0214844-.0351562.3995872.3995872 0 0 1 -.015625-.03125.3995872.3995872 0 0 1 -.0019532-.0097656.3995872.3995872 0 0 1 -.0214843-.0722656.3995872.3995872 0 0 1 -.0039063-.0390626.3995872.3995872 0 0 1 0-.0800781.3995872.3995872 0 0 1  .0058594-.0390625.3995872.3995872 0 0 1  .0429688-.1132812.3995872.3995872 0 0 1  .0449218-.0644532.3995872.3995872 0 0 1  .0175782-.0195312.3995872.3995872 0 0 1  .1269532-.0859375.3995872.3995872 0 0 1  .076172-.0234375.3995872.3995872 0 0 1  .007812-.0019531.3995872.3995872 0 0 1  .03125-.0039063.3995872.3995872 0 0 1  .039063-.0039062zm-8.9296878.9316406c-1.71286504 1.712865-1.71286481 4.472682 0 6.185547 1.7128656 1.712866 4.4687757 1.710912 6.1816407-.001953zm6.7109376 1.2890625a.3995872.3995872 0 0 1  .2890624.1171875.3995872.3995872 0 0 1 -.0019531.564453.3995872.3995872 0 0 1 -.5644531.001953.3995872.3995872 0 0 1 -.0195312-.5468748.3995872.3995872 0 0 1  .0195312-.0195312.3995872.3995872 0 0 1  .2773438-.1171875z" fill="#d0d0d0" stroke-width="1.979046" transform="scale(.26458333)"/></svg>

<?xml version="1.0" encoding="UTF-8" standalone="no"?>
<!-- Created with Inkscape (http://www.inkscape.org/) -->

<svg
   xmlns:dc="http://purl.org/dc/elements/1.1/"
   xmlns:cc="http://creativecommons.org/ns#"
   xmlns:rdf="http://www.w3.org/1999/02/22-rdf-syntax-ns#"
   xmlns:svg="http://www.w3.org/2000/svg"
   xmlns="http://www.w3.org/2000/svg"
   xmlns:sodipodi="http://sodipodi.sourceforge.net/DTD/sodipodi-0.dtd"
   xmlns:inkscape="http://www.inkscape.org/namespaces/inkscape"
   width="16"
   height="16"
   viewBox="0 0 4.2333332 4.2333332"
   version="1.1"
   id="svg8"
   inkscape:version="0.92+devel (260139f747, 2017-08-10, custom)"
   sodipodi:docname="glyph-bandage.svg">
  <defs
     id="defs2" />
  <sodipodi:namedview
     id="base"
     pagecolor="#002466"
     bordercolor="#ffffff"
     borderopacity="0.38039216"
     inkscape:pageopacity="1"
     inkscape:pageshadow="2"
     inkscape:zoom="36.504388"
     inkscape:cx="7.958909"
     inkscape:cy="8"
     inkscape:document-units="px"
     inkscape:current-layer="svg8"
     inkscape:document-rotation="0"
     showgrid="false"
     inkscape:showpageshadow="false"
     borderlayer="true"
     inkscape:window-width="1920"
     inkscape:window-height="1027"
     inkscape:window-x="0"
     inkscape:window-y="24"
     inkscape:window-maximized="1"
     units="px"
     inkscape:snap-intersection-paths="true"
     inkscape:object-paths="false"
     inkscape:snap-bbox="true"
     inkscape:bbox-nodes="true"
     inkscape:snap-smooth-nodes="true" />
  <metadata
     id="metadata5">
    <rdf:RDF>
      <cc:Work
         rdf:about="">
        <dc:format>image/svg+xml</dc:format>
        <dc:type
           rdf:resource="http://purl.org/dc/dcmitype/StillImage" />
        <dc:title></dc:title>
      </cc:Work>
    </rdf:RDF>
  </metadata>
  <path
     style="fill:#d0d0d0;stroke-width:1.97904575"
     d="M 11.623047 0 C 10.50513 4.7244096e-08 9.3876825 0.42872376 8.53125 1.2851562 L 14.714844 7.4667969 C 16.427708 5.7539327 16.429663 2.9980214 14.716797 1.2851562 C 13.860364 0.42872365 12.740964 -4.7244096e-08 11.623047 0 z M 7.9140625 1.9023438 L 1.9023438 7.9140625 L 8.0859375 14.095703 L 14.095703 8.0859375 L 7.9140625 1.9023438 z M 7.9667969 5.3808594 A 0.3995872 0.3995872 0 0 1 8.2617188 5.4785156 A 0.3995872 0.3995872 0 0 1 8.28125 5.4980469 A 0.3995872 0.3995872 0 0 1 8.28125 6.0644531 A 0.3995872 0.3995872 0 0 1 7.7167969 6.0625 A 0.3995872 0.3995872 0 0 1 7.7148438 5.4980469 A 0.3995872 0.3995872 0 0 1 7.9667969 5.3808594 z M 5.78125 7.5996094 C 5.8837648 7.5996087 5.9863643 7.6403437 6.0644531 7.71875 C 6.2199607 7.875154 6.2187684 8.127566 6.0625 8.2832031 C 5.9068606 8.4394696 5.65444 8.4387231 5.4980469 8.2832031 C 5.3481773 8.1346152 5.3395348 7.8951363 5.4785156 7.7363281 C 5.4847141 7.7296384 5.4913571 7.7249862 5.4980469 7.71875 C 5.5761374 7.6403448 5.6787352 7.59961 5.78125 7.5996094 z M 8.0019531 7.5996094 C 8.104468 7.5996091 8.2070674 7.6383925 8.2851562 7.7167969 C 8.4406596 7.8731986 8.4394715 8.1256128 8.2832031 8.28125 C 8.1275637 8.4375168 7.8751506 8.438708 7.71875 8.2832031 C 7.5688804 8.1346136 7.560238 7.8951363 7.6992188 7.7363281 C 7.7054172 7.7296384 7.7120602 7.7230331 7.71875 7.7167969 C 7.7968403 7.6383915 7.8994383 7.5996096 8.0019531 7.5996094 z M 10.214844 7.5996094 A 0.3995872 0.3995872 0 0 1 10.255859 7.6015625 A 0.3995872 0.3995872 0 0 1 10.328125 7.6171875 A 0.3995872 0.3995872 0 0 1 10.339844 7.6191406 A 0.3995872 0.3995872 0 0 1 10.373047 7.6308594 A 0.3995872 0.3995872 0 0 1 10.402344 7.6445312 A 0.3995872 0.3995872 0 0 1 10.416016 7.6523438 A 0.3995872 0.3995872 0 0 1 10.462891 7.6816406 A 0.3995872 0.3995872 0 0 1 10.480469 7.6972656 A 0.3995872 0.3995872 0 0 1 10.503906 7.71875 A 0.3995872 0.3995872 0 0 1 10.619141 8.0332031 A 0.3995872 0.3995872 0 0 0 10.617188 8.0351562 A 0.3995872 0.3995872 0 0 1 10.603516 8.1132812 A 0.3995872 0.3995872 0 0 0 10.601562 8.1132812 A 0.3995872 0.3995872 0 0 1 10.589844 8.1503906 A 0.3995872 0.3995872 0 0 0 10.589844 8.1523438 A 0.3995872 0.3995872 0 0 1 10.572266 8.1875 A 0.3995872 0.3995872 0 0 0 10.570312 8.1894531 A 0.3995872 0.3995872 0 0 1 10.552734 8.2207031 A 0.3995872 0.3995872 0 0 0 10.552734 8.2226562 A 0.3995872 0.3995872 0 0 1 10.529297 8.2539062 A 0.3995872 0.3995872 0 0 1 10.5 8.2832031 A 0.3995872 0.3995872 0 0 1 10.453125 8.3242188 A 0.3995872 0.3995872 0 0 1 10.449219 8.3261719 A 0.3995872 0.3995872 0 0 0 10.449219 8.328125 A 0.3995872 0.3995872 0 0 1 10.441406 8.3320312 A 0.3995872 0.3995872 0 0 1 10.378906 8.3671875 A 0.3995872 0.3995872 0 0 1 10.359375 8.375 A 0.3995872 0.3995872 0 0 1 10.34375 8.3808594 A 0.3995872 0.3995872 0 0 0 10.341797 8.3828125 A 0.3995872 0.3995872 0 0 1 10.263672 8.3964844 A 0.3995872 0.3995872 0 0 1 10.224609 8.4003906 A 0.3995872 0.3995872 0 0 1 10.185547 8.4003906 A 0.3995872 0.3995872 0 0 0 10.183594 8.3984375 A 0.3995872 0.3995872 0 0 1 10.146484 8.3945312 A 0.3995872 0.3995872 0 0 0 10.146484 8.3925781 A 0.3995872 0.3995872 0 0 1 10.107422 8.3847656 A 0.3995872 0.3995872 0 0 0 10.105469 8.3828125 A 0.3995872 0.3995872 0 0 1 10.070312 8.3730469 A 0.3995872 0.3995872 0 0 0 10.068359 8.3710938 A 0.3995872 0.3995872 0 0 1 10.03125 8.3535156 A 0.3995872 0.3995872 0 0 1 10 8.3359375 A 0.3995872 0.3995872 0 0 0 9.9980469 8.3339844 A 0.3995872 0.3995872 0 0 1 9.9667969 8.3125 A 0.3995872 0.3995872 0 0 1 9.9648438 8.3085938 A 0.3995872 0.3995872 0 0 1 9.9375 8.2832031 A 0.3995872 0.3995872 0 0 0 9.9355469 8.2832031 A 0.3995872 0.3995872 0 0 1 9.9101562 8.2539062 A 0.3995872 0.3995872 0 0 1 9.8867188 8.2226562 A 0.3995872 0.3995872 0 0 1 9.8652344 8.1875 A 0.3995872 0.3995872 0 0 1 9.8496094 8.15625 A 0.3995872 0.3995872 0 0 1 9.8476562 8.1464844 A 0.3995872 0.3995872 0 0 1 9.8261719 8.0742188 A 0.3995872 0.3995872 0 0 1 9.8222656 8.0351562 A 0.3995872 0.3995872 0 0 1 9.8222656 7.9550781 A 0.3995872 0.3995872 0 0 1 9.828125 7.9160156 A 0.3995872 0.3995872 0 0 1 9.8710938 7.8027344 A 0.3995872 0.3995872 0 0 1 9.9160156 7.7382812 A 0.3995872 0.3995872 0 0 1 9.9335938 7.71875 A 0.3995872 0.3995872 0 0 1 10.060547 7.6328125 A 0.3995872 0.3995872 0 0 1 10.136719 7.609375 A 0.3995872 0.3995872 0 0 1 10.144531 7.6074219 A 0.3995872 0.3995872 0 0 1 10.175781 7.6035156 A 0.3995872 0.3995872 0 0 1 10.214844 7.5996094 z M 1.2851562 8.53125 C -0.42770884 10.244115 -0.42770861 13.003932 1.2851562 14.716797 C 2.9980218 16.429663 5.7539319 16.427709 7.4667969 14.714844 L 1.2851562 8.53125 z M 7.9960938 9.8203125 A 0.3995872 0.3995872 0 0 1 8.2851562 9.9375 A 0.3995872 0.3995872 0 0 1 8.2832031 10.501953 A 0.3995872 0.3995872 0 0 1 7.71875 10.503906 A 0.3995872 0.3995872 0 0 1 7.6992188 9.9570312 A 0.3995872 0.3995872 0 0 1 7.71875 9.9375 A 0.3995872 0.3995872 0 0 1 7.9960938 9.8203125 z "
     transform="scale(0.26458333)"
     id="rect811" />
</svg>
